svg/emoji_u1f238.svg

<?xml version="1.0" encoding="UTF-8"?>
<svg width="128" height="128" enable-background="new 0 0 128 128" xmlns="http://www.w3.org/2000/svg"><linearGradient id="a" x1="64" x2="64" y1="5.6667" y2="121.92" gradientUnits="userSpaceOnUse"><stop stop-color="#FFAB40" offset="0"/><stop stop-color="#FF6D00" offset="1"/></linearGradient><path d="m116 124h-104c-4.42 0-8-3.58-8-8v-104c0-4.42 3.58-8 8-8h104c4.42 0 8 3.58 8 8v104c0 4.42-3.58 8-8 8z" fill="url(#a)"/><g opacity=".2"><path d="m116 7c2.76 0 5 2.24 5 5v104c0 2.76-2.24 5-5 5h-104c-2.76 0-5-2.24-5-5v-104c0-2.76 2.24-5 5-5h104m0-3h-104c-4.42 0-8 3.58-8 8v104c0 4.42 3.58 8 8 8h104c4.42 0 8-3.58 8-8v-104c0-4.42-3.58-8-8-8z" fill="#424242"/></g><g opacity=".2"><path d="m66.26 18c1.1 0 2 0.9 2 2v9.14c0 1.1 0.9 2 2 2h31.11c1.1 0 2 0.9 2 2v53.29c0 1.1-0.9 2-2 2h-5.63c-1.1 0-2-0.9-2-2v-1.02c0-1.1-0.9-2-2-2h-21.48c-1.1 0-2 0.9-2 2v22.59c0 1.1-0.9 2-2 2h-5.63c-1.1 0-2-0.9-2-2v-22.59c0-1.1-0.9-2-2-2h-20.78c-1.1 0-2 0.9-2 2v1.52c0 1.1-0.9 2-2 2h-5.23c-1.1 0-2-0.9-2-2v-53.79c0-1.1 0.9-2 2-2h30.01c1.1 0 2-0.9 2-2v-9.14c0-1.1 0.9-2 2-2h5.63m4 34.61h21.48c1.1 0 2-0.9 2-2v-8.54c0-1.1-0.9-2-2-2h-21.48c-1.1 0-2 0.9-2 2v8.54c0 1.11 0.9 2 2 2m-34.41 0h20.78c1.1 0 2-0.9 2-2v-8.54c0-1.1-0.9-2-2-2h-20.78c-1.1 0-2 0.9-2 2v8.54c0 1.11 0.9 2 2 2m34.41 21.87h21.48c1.1 0 2-0.9 2-2v-9.24c0-1.1-0.9-2-2-2h-21.48c-1.1 0-2 0.9-2 2v9.24c0 1.11 0.9 2 2 2m-34.41 0h20.78c1.1 0 2-0.9 2-2v-9.24c0-1.1-0.9-2-2-2h-20.78c-1.1 0-2 0.9-2 2v9.24c0 1.11 0.9 2 2 2m30.41-59.48h-5.63c-2.76 0-5 2.24-5 5v8.14h-29.01c-2.76 0-5 2.24-5 5v53.79c0 2.76 2.24 5 5 5h5.23c2.76 0 5-2.24 5-5v-0.52h18.78v21.59c0 2.76 2.24 5 5 5h5.63c2.76 0 5-2.24 5-5v-21.59h19.48v0.02c0 2.76 2.24 5 5 5h5.63c2.76 0 5-2.24 5-5v-53.29c0-2.76-2.24-5-5-5h-30.11v-8.14c0-2.76-2.24-5-5-5zm5 28.07h19.48v6.54h-19.48v-6.54zm-34.41 0h18.78v6.54h-18.78v-6.54zm34.41 21.17h19.48v7.24h-19.48v-7.24zm-34.41 0h18.78v7.24h-18.78v-7.24z" fill="#424242"/></g><path d="m103.38 33.14v53.29c0 1.1-0.9 2-2 2h-5.63c-1.1 0-2-0.9-2-2v-1.02c0-1.1-0.9-2-2-2h-21.49c-1.1 0-2 0.9-2 2v22.59c0 1.1-0.9 2-2 2h-5.63c-1.1 0-2-0.9-2-2v-22.59c0-1.1-0.9-2-2-2h-20.78c-1.1 0-2 0.9-2 2v1.52c0 1.1-0.9 2-2 2h-5.23c-1.1 0-2-0.9-2-2v-53.79c0-1.1 0.9-2 2-2h30.01c1.1 0 2-0.9 2-2v-9.14c0-1.1 0.9-2 2-2h5.63c1.1 0 2 0.9 2 2v9.14c0 1.1 0.9 2 2 2h31.11c1.11 0 2.01 0.9 2.01 2zm-69.53 8.93v8.54c0 1.1 0.9 2 2 2h20.78c1.1 0 2-0.9 2-2v-8.54c0-1.1-0.9-2-2-2h-20.78c-1.1 0-2 0.9-2 2zm24.78 30.41v-9.24c0-1.1-0.9-2-2-2h-20.78c-1.1 0-2 0.9-2 2v9.24c0 1.1 0.9 2 2 2h20.78c1.11 0 2-0.89 2-2zm9.63-30.41v8.54c0 1.1 0.9 2 2 2h21.48c1.1 0 2-0.9 2-2v-8.54c0-1.1-0.9-2-2-2h-21.48c-1.1 0-2 0.9-2 2zm25.49 30.41v-9.24c0-1.1-0.9-2-2-2h-21.49c-1.1 0-2 0.9-2 2v9.24c0 1.1 0.9 2 2 2h21.48c1.11 0 2.01-0.89 2.01-2z" fill="#FAFAFA"/></svg>

<svg width="128" height="128" style="enable-background:new 0 0 128 128;" xmlns="http://www.w3.org/2000/svg" xmlns:xlink="http://www.w3.org/1999/xlink">
  <g>
    <linearGradient id="SVGID_1_" gradientUnits="userSpaceOnUse" x1="64" x2="64" y1="5.6667" y2="121.9197">
      <stop offset="0" style="stop-color:#FFAB40"/>
      <stop offset="1" style="stop-color:#FF6D00"/>
    </linearGradient>
    <path d="M116,124H12c-4.42,0-8-3.58-8-8V12c0-4.42,3.58-8,8-8h104c4.42,0,8,3.58,8,8v104 C124,120.42,120.42,124,116,124z" style="fill:url(#SVGID_1_);"/>
    <g style="opacity:0.2;">
      <path d="M116,7c2.76,0,5,2.24,5,5v104c0,2.76-2.24,5-5,5H12c-2.76,0-5-2.24-5-5V12c0-2.76,2.24-5,5-5H116 M116,4H12c-4.42,0-8,3.58-8,8v104c0,4.42,3.58,8,8,8h104c4.42,0,8-3.58,8-8V12C124,7.58,120.42,4,116,4L116,4z" style="fill:#424242;"/>
    </g>
    <g style="opacity:0.2;">
      <path d="M66.26,18c1.1,0,2,0.9,2,2v9.14c0,1.1,0.9,2,2,2h31.11c1.1,0,2,0.9,2,2v53.29c0,1.1-0.9,2-2,2 h-5.63c-1.1,0-2-0.9-2-2v-1.02c0-1.1-0.9-2-2-2H70.26c-1.1,0-2,0.9-2,2V108c0,1.1-0.9,2-2,2h-5.63c-1.1,0-2-0.9-2-2V85.41 c0-1.1-0.9-2-2-2H35.85c-1.1,0-2,0.9-2,2v1.52c0,1.1-0.9,2-2,2h-5.23c-1.1,0-2-0.9-2-2V33.14c0-1.1,0.9-2,2-2h30.01 c1.1,0,2-0.9,2-2V20c0-1.1,0.9-2,2-2H66.26 M70.26,52.61h21.48c1.1,0,2-0.9,2-2v-8.54c0-1.1-0.9-2-2-2H70.26c-1.1,0-2,0.9-2,2 v8.54C68.26,51.72,69.16,52.61,70.26,52.61 M35.85,52.61h20.78c1.1,0,2-0.9,2-2v-8.54c0-1.1-0.9-2-2-2H35.85c-1.1,0-2,0.9-2,2 v8.54C33.85,51.72,34.75,52.61,35.85,52.61 M70.26,74.48h21.48c1.1,0,2-0.9,2-2v-9.24c0-1.1-0.9-2-2-2H70.26c-1.1,0-2,0.9-2,2 v9.24C68.26,73.59,69.16,74.48,70.26,74.48 M35.85,74.48h20.78c1.1,0,2-0.9,2-2v-9.24c0-1.1-0.9-2-2-2H35.85c-1.1,0-2,0.9-2,2 v9.24C33.85,73.59,34.75,74.48,35.85,74.48 M66.26,15h-5.63c-2.76,0-5,2.24-5,5v8.14H26.62c-2.76,0-5,2.24-5,5v53.79 c0,2.76,2.24,5,5,5h5.23c2.76,0,5-2.24,5-5v-0.52h18.78V108c0,2.76,2.24,5,5,5h5.63c2.76,0,5-2.24,5-5V86.41h19.48v0.02 c0,2.76,2.24,5,5,5h5.63c2.76,0,5-2.24,5-5V33.14c0-2.76-2.24-5-5-5H71.26V20C71.26,17.24,69.02,15,66.26,15L66.26,15z M71.26,43.07h19.48v6.54H71.26V43.07L71.26,43.07z M36.85,43.07h18.78v6.54H36.85V43.07L36.85,43.07z M71.26,64.24h19.48v7.24 H71.26V64.24L71.26,64.24z M36.85,64.24h18.78v7.24H36.85V64.24L36.85,64.24z" style="fill:#424242;"/>
    </g>
    <path d="M103.38,33.14v53.29c0,1.1-0.9,2-2,2h-5.63c-1.1,0-2-0.9-2-2v-1.02c0-1.1-0.9-2-2-2H70.26 c-1.1,0-2,0.9-2,2V108c0,1.1-0.9,2-2,2h-5.63c-1.1,0-2-0.9-2-2V85.41c0-1.1-0.9-2-2-2H35.85c-1.1,0-2,0.9-2,2v1.52 c0,1.1-0.9,2-2,2h-5.23c-1.1,0-2-0.9-2-2V33.14c0-1.1,0.9-2,2-2h30.01c1.1,0,2-0.9,2-2V20c0-1.1,0.9-2,2-2h5.63c1.1,0,2,0.9,2,2 v9.14c0,1.1,0.9,2,2,2h31.11C102.48,31.14,103.38,32.04,103.38,33.14z M33.85,42.07v8.54c0,1.1,0.9,2,2,2h20.78c1.1,0,2-0.9,2-2 v-8.54c0-1.1-0.9-2-2-2H35.85C34.75,40.07,33.85,40.97,33.85,42.07z M58.63,72.48v-9.24c0-1.1-0.9-2-2-2H35.85c-1.1,0-2,0.9-2,2 v9.24c0,1.1,0.9,2,2,2h20.78C57.74,74.48,58.63,73.59,58.63,72.48z M68.26,42.07v8.54c0,1.1,0.9,2,2,2h21.48c1.1,0,2-0.9,2-2 v-8.54c0-1.1-0.9-2-2-2H70.26C69.16,40.07,68.26,40.97,68.26,42.07z M93.75,72.48v-9.24c0-1.1-0.9-2-2-2H70.26c-1.1,0-2,0.9-2,2 v9.24c0,1.1,0.9,2,2,2h21.48C92.85,74.48,93.75,73.59,93.75,72.48z" style="fill:#FAFAFA;"/>
  </g>
</svg>
